X:
T:Klinge lieblich
C:Stimme in b
W:aus: In Froher Rund', Volkslieder für die Veeh-Harfe, 2016.
M:3/4
L:1/8
K:A
V:1
E E | A3 E (CE) | A4 A A | (B3 c) d B | A6 |
B2 B2 (GE) | A3 B c2 | B2 B2 (GE) |
A3 B c2 | d B c2 B2 | A4 |]
V:2
z2 | z6 | (& z6 & C4 F F &) | (& E6 & E3 A B G &) | (& C6 & C6 &) |
(& G6 & G2 E2 B,2 &) | (& C6 & C3 E A2 &) | (& G6 & G2 E2 B,2 &) |
(& C6 & C3 E A2 &) | (& F2 A2 E2 & F G A2 E D &) | (& C4 & C4 &) |]
